packages/kaspersky-hexa-ui-icons/src/iconsSVGs/16/CancelExecutionPrevention.svg

<svg width="16" height="16" viewBox="0 0 16 16" fill="none" xmlns="http://www.w3.org/2000/svg">
<path d="M7.54409 6.8965C7.34298 6.78039 7.0952 6.78039 6.89409 6.8965C6.69298 7.01261 6.56909 7.2272 6.56909 7.45942V10.2405C6.56909 10.4727 6.69298 10.6873 6.89409 10.8034C7.0952 10.9195 7.34298 10.9195 7.54409 10.8034L9.95259 9.41288C10.1537 9.29677 10.2776 9.08218 10.2776 8.84996C10.2776 8.61774 10.1537 8.40316 9.95259 8.28705L7.54409 6.8965Z" fill="black"/>
<path fill-rule="evenodd" clip-rule="evenodd" d="M6.84504 1.80005C6.52016 1.80005 6.24517 2.03992 6.20106 2.36178L5.98742 3.92046C5.53636 4.10475 5.1165 4.34898 4.7377 4.64308L3.27919 4.04878C2.97844 3.92623 2.63338 4.04447 2.471 4.32573L1.31662 6.32517C1.15418 6.60652 1.22442 6.9646 1.48111 7.16374L2.72508 8.12882C2.69308 8.36486 2.67658 8.60558 2.67658 8.84986C2.67658 9.09447 2.69312 9.33551 2.72521 9.57185L1.48198 10.5373C1.22548 10.7364 1.15535 11.0944 1.31773 11.3756L2.47211 13.3751C2.63455 13.6564 2.97977 13.7747 3.28057 13.6519L4.73836 13.0571C5.11697 13.351 5.53658 13.5951 5.98736 13.7792L6.20106 15.3383C6.24517 15.6602 6.52016 15.9 6.84504 15.9H9.15379C9.47856 15.9 9.75348 15.6603 9.79773 15.3386L10.0122 13.7791C10.4629 13.5949 10.8824 13.3509 11.261 13.0571L12.7191 13.652C13.0199 13.7748 13.3652 13.6565 13.5276 13.3752L14.682 11.3758C14.8443 11.0945 14.7742 10.7366 14.5177 10.5374L13.2741 9.57165C13.3062 9.33537 13.3227 9.0944 13.3227 8.84986C13.3227 8.60566 13.3062 8.36502 13.2742 8.12905L14.5186 7.16363C14.7753 6.96449 14.8455 6.60641 14.6831 6.32506L13.5287 4.32562C13.3663 4.04437 13.0213 3.92613 12.7205 4.04867L11.2616 4.64313C10.8829 4.34908 10.4631 4.10487 10.0121 3.92058L9.79773 2.36149C9.75348 2.03975 9.47856 1.80005 9.15379 1.80005H6.84504ZM7.16647 4.89155L7.41202 3.10005H8.58707L8.83347 4.89172L9.22398 5.01632C9.77989 5.19369 10.284 5.48905 10.7065 5.87364L11.0097 6.14956L12.6863 5.46642L13.2738 6.48404L11.8446 7.59278L11.9314 7.99301C11.9911 8.26855 12.0227 8.55515 12.0227 8.84986C12.0227 9.1448 11.9911 9.4316 11.9312 9.70734L11.8445 10.1074L13.2728 11.2166L12.6853 12.2342L11.0095 11.5505L10.7062 11.8264C10.2837 12.2108 9.77975 12.5061 9.22403 12.6834L8.83352 12.808L8.58707 14.6H7.41202L7.16642 12.8082L6.77565 12.6835C6.21979 12.5062 5.71573 12.211 5.29316 11.8265L4.98985 11.5505L3.31445 12.2341L2.72693 11.2164L4.15486 10.1076L4.06806 9.7075C4.00822 9.43172 3.97658 9.14486 3.97658 8.84986C3.97658 8.55508 4.00817 8.26842 4.06792 7.99283L4.1547 7.59258L2.72595 6.48415L3.31347 5.46653L4.98961 6.14951L5.29277 5.8736C5.71544 5.48893 6.21965 5.19353 6.7757 5.01619L7.16647 4.89155Z" fill="black"/>
</svg>

<svg xmlns="http://www.w3.org/2000/svg" width="16" height="16" fill="none" viewBox="0 0 16 16"><path fill="#000" d="M7.544 6.8965a.65.65 0 0 0-.975.563v2.781a.65.65 0 0 0 .975.5629l2.4086-1.3905a.65.65 0 0 0 0-1.1258z"/><path fill="#000" fill-rule="evenodd" d="M6.845 1.8a.65.65 0 0 0-.644.5618l-.2136 1.5587a5.32 5.32 0 0 0-1.2497.7226l-1.4585-.5943a.65.65 0 0 0-.8082.277L1.3166 6.3251a.65.65 0 0 0 .1645.8385l1.244.9651a5.4 5.4 0 0 0-.0485.721c0 .2447.0165.4857.0486.722l-1.2432.9655a.65.65 0 0 0-.1643.8383l1.1544 1.9995a.65.65 0 0 0 .8085.2768l1.4578-.5948a5.3 5.3 0 0 0 1.249.7221l.2137 1.5591a.65.65 0 0 0 .644.5617h2.3087a.65.65 0 0 0 .644-.5614l.2144-1.5595a5.32 5.32 0 0 0 1.2488-.722l1.4581.5949a.65.65 0 0 0 .8085-.2768l1.1544-1.9994a.65.65 0 0 0-.1643-.8384l-1.2436-.9657a5.4 5.4 0 0 0 .0486-.7218c0-.2442-.0165-.4849-.0485-.7209l1.2444-.9654a.65.65 0 0 0 .1645-.8385l-1.1544-1.9995a.65.65 0 0 0-.8082-.277l-1.4589.5945a5.32 5.32 0 0 0-1.2495-.7225l-.2144-1.5591a.65.65 0 0 0-.644-.5614zm.3215 3.0915.2455-1.7914h1.175l.2465 1.7916.3905.1246a4.02 4.02 0 0 1 1.4825.8573l.3032.276 1.6766-.6832.5875 1.0176-1.4292 1.1088.0868.4002a4.04 4.04 0 0 1 .0913.8569c0 .2949-.0316.5817-.0915.8574l-.0867.4001 1.4283 1.1092-.5875 1.0176-1.6758-.6837-.3033.2759a4.02 4.02 0 0 1-1.4822.857l-.3905.1246-.2464 1.792H7.412l-.2457-1.7918-.3908-.1247a4.02 4.02 0 0 1-1.4824-.857l-.3033-.276-1.6754.6836-.5876-1.0177 1.428-1.1088-.0868-.4001a4.04 4.04 0 0 1-.0915-.8576c0-.2948.0316-.5815.0913-.857l.0868-.4003L2.726 6.484l.5875-1.0176 1.6761.683.3032-.2759a4.02 4.02 0 0 1 1.4829-.8574z" clip-rule="evenodd"/></svg>
